X: 34248
T: Reeling On The Box
R: reel
M: 4/4
K: Gmixolydian
|:G2DC B,CDE|FDCD G,CEC|DGCD B,G,B,C|DGG^F Gdcd|
BGDC B,DG,E|FDCD G,CEC|DGCD B,G,B,C|1 DGG^F ~G3D:|2 DGG^F ~G3B||
|:dBcA ~G3B|dg^fg dBcA|F2EF DFCF|(3DEF AF cFBc|
dBcA ~G3B|dg^fg dBcA|F2EF (3DEF CF|1 DB,CA, ~G3B:|2 DB,CA, G4||

